packages/swarm-icons/src/icons/solid/Credit Card.svg

<svg xmlns="http://www.w3.org/2000/svg" width="18" height="18" viewBox="0 0 18 18">
  <path fill="#A2A2A2" d="M3,5 L3,13 L15,13 L15,5 L3,5 Z M3,3 L15,3 C16.1045695,3 17,3.8954305 17,5 L17,13 C17,14.1045695 16.1045695,15 15,15 L3,15 C1.8954305,15 1,14.1045695 1,13 L1,5 C1,3.8954305 1.8954305,3 3,3 Z M3,6.5 L15,6.5 L15,9 L3,9 L3,6.5 Z M4.5,12 C4.22385763,12 4,11.7761424 4,11.5 C4,11.2238576 4.22385763,11 4.5,11 L8.5,11 C8.77614237,11 9,11.2238576 9,11.5 C9,11.7761424 8.77614237,12 8.5,12 L4.5,12 Z"/>
</svg>

<svg xmlns="http://www.w3.org/2000/svg" width="18" height="18"><path fill="#A2A2A2" d="M3 5v8h12V5H3zm0-2h12a2 2 0 012 2v8a2 2 0 01-2 2H3a2 2 0 01-2-2V5a2 2 0 012-2zm0 3.5h12V9H3V6.5zM4.5 12a.5.5 0 110-1h4a.5.5 0 110 1h-4z"/></svg>
